X: 4958
T: Bren Newman's
R: polka
M: 2/4
K: Dmajor
|:dc Bc/B/|AF AB/c/|df ed/e/|fe ec|
dc Bc/B/|AF AB/c/|df ed/e/|1 fd dc:|2 fd de||
|:fd fg|a2 ag|fd fg|a2 ag|
fd Bc/B/|AF AB/c/|df ed/e/|1 fd de:|2 fd dc||

